X:1
T:Bourre : J'avais une bonne amie
C:traditionnel, fichier abc : Bernard Loffet
L:1/8
Q:220
M:3/8
K:G
 z2[DG,] |: [GG,][BG,][G/G,/]B/ | [BG,][BG,][BG,] | [cD,][AD,][cD,] | [BG,][GG,][DG,] | \
 [GG,][BG,][G/G,/]B/ | [BG,][BG,][BG,] | [cD,][AD,][FD,] |1 [GG,]G,[DG,] :|2 [GG,]G,[B/G,/]c/ | \
|: [BG,][cD,][A/D,/]c/ | [BG,][GG,][BG,] | [AD,][FD,][AD,] | [BG,][GG,][B/G,/]c/ | \
 [BG,][cD,][A/D,/]c/ | [BG,][GG,][BG,] | [AD,][FD,][DG,] |1 [GG,]G,[B/G,/]c/ :|2 [GG,]G,2 | \
Z:Created with TablEdit http://www.tabledit.com/ by Bernard Loffet
